X:1
T:Si tus penas
T:Francisco Guerrero
T:Source : Secondo libro delle Laude spirituali a tre et a quattro voci---Roma---A.Gardano---1583 Editor : André Vierendeels (03/12/17) Notes : Original clefs ; C1, C1, C3 Editorial accidentals above the staff m 5 in S 2 : "G" notated as "A" in original print Compiled by Francisco Soto de Langa "Canciones y villanescas espirituales" Text by Lopes de Vega
T:Si tus penas
T:©
T:©
T:©
C:Francisco Guerrero
Z:©
%%score [ 1 2 3 ]
L:1/8
Q:1/4=124
M:4/4
K:F
V:1 treble nm="Soprano 1" snm="S 1"
V:2 treble nm="Soprano 2" snm="S 2"
V:3 treble-8 nm="Tenor" snm="T"
V:1
 A6 A2 | B4 A2 B2 | c2 B4 AG | ^F4 z2 d2- | d2 d2 _e4 | d6 d2 | c4 B2 B2 | B2 B2 G4 | ^F4 z2 d2- | %9
w: Si tus|pe- nas no|prue- * * *|vo, si|_ tus pe-|nas no|prue- vo, O|Ie- sus mi-|o, O|
 dd d2 c4 | A2 d3 d c2 | B2 c2 A4 | G8 :: B6 c2 | A2 d4 B2 | c2 d3 d d2 | c2 B2 A4 | B4 G4- | %18
w: _ Ie- sus mi-|o, vi- vo tri-|ste'y pe- na-|do,|hie- re-|me, hie- re-|me, hie- re- me|pues el al-|ma ya|
 G2 G2 c4 |1 B8 :|2"^RESIDUUM" B8 || z8 | z2 G2 B2 B2 | A3 B c4 | B4 A4 | z2 D2 A2 A2 | c3 B A4 | %27
w: _ t'e da|do,|do,||y sie- ste|don me hi-|zie- res,|mi dios cla-|ro ve- re,|
 z2 A2 c2 d2 | d2 c2 d4 | c6 B2- | B2 B2 A4 | G4 z4 | z4 z2 G2 | B2 B2 A3 B | c4 B4 | A4 z2 D2 | %36
w: mi dios cla-|ro ve- re,|que bien|_ me quie-|res,|y|sie- ste don me|hi- zie-|res, mi|
 A2 A2 c3 B | A4 z2 A2 | c2 d2 d2 c2 | d4 c4- | c2 B4 B2 | A8 | G8 |] %43
w: dios cla- ro ve-|re, mi|dios cla- ro ve-|re que|_ bien me|quie-|res.|
V:2
 ^F6 F2 | G4 ^F2 F2 | G8 | A4 z2 B2- | B2 B2 G4 | B6 B2 | A4 B2 d2 | d2 d2 c4 | A4 z2 B2- | %9
w: Si tus|pe- nas no|prue-|vo, si|_ tus pe-|nas no|prue- vo, O|Ie- sus mi-|o, O|
 BB B2 G4 | ^F2 B3 B A2 | G2 G2 ^F4 | G8 ::"^b" G6 E2 | F2 B4 G2 | G2 B3 B B2 | A2 G2 F4 | D4 E4- | %18
w: _ Ie- sus mi-|o, vi- vo tri-|ste'y pe- na-|do,|hie- re-|me, hie- re-|me, hie- re- me|pues el al-|ma ya|
 E2 D2 E2 F2 |1 G8 :|2 G8 || z2 D2 F2 F2 | E3 F G4 | D2 F4 E2 | G4 F2 D2 | A2 A2 c3 B | A4 z2 c2 | %27
w: _ t'e da- *|do,|do,|y sie- ste|don m'hi- zie-|res, me hi-|zie- res mi|dios cla- ro ve-|re, mi|
 c4 z2 A2- | AA G2 A4 | A4 A2 F2 | G6 F2 | G4 z2 D2 | F2 F2 E3 F | G4 D2 F2- | F2 E2 G4 | %35
w: dios cla-|* ro ve- re,|que bien me|quie- *|res, y|sie- ste don m'hi-|zie- res, me|_ hi- zie-|
 F2 D2 A2 A2 | c3 B A4 | z2 c2 c4 | z2 A3 A G2 | A4 A4 | A2 F2 G4- |"^#" G4 F4 | G8 |] %43
w: res, mi dios cla-|ro ve- re,|mi dios|cla- ro ve-|re, que|bien me quie-||res.|
V:3
 d6 d2 | G4 d2 d2 | _e8 | d4 z2 B2- | B2 B2 c4 | B6 B2 | f4 B2 B2 | B2 B2 c4 | d4 z2 B2- | %9
w: Si tus|pe- nas no|prue-|vo, si|_ tus pe-|nas no|prue- vo, O|Ie- sus mi-|o, O|
 BB B2 c4 | d2 B3 B F2 | G2 c2 d4 | G8 :: _e6 c2 |"^b" d2 B4 e2 | c2 B3 B B2 | F2 G2 d4 | G4 c4- | %18
w: _ Ie- sus mi-|o, vi- vo tri-|ste'y pe- na-|do,|hie- re-|me, hie- re-|me, hie- re- me|pues el al-|ma ya|
 c2 B2 A4 |1 G8 :|2 G4 z2 G2 || B2 B2 A3 B | c4 G4 | z8 | z2 G2 d2 d2 | f2 f2 f4 | z2 f2 f4 | %27
w: _ t'e da-|do,|do, y|sie- ste don m'hi-|zie- res||mi dios cla-|ro ve- re,|mi dios,|
 z2 f2 f2 d2 | f2 e2 d4 | A6 B2 | G4 d4 | G2 G2 B2 B2 | A3 B c4 | G4 z4 | z4 z2 G2 | d2 d2 f2 f2 | %36
w: mi dios cla-|ro ve- re|que bien|me quie-|res, y sie- ste|don m'hi- zie-|res,|mi|dios cla- ro ve-|
 f4 z2 f2 | f4 z2 f2 | f2 d2 f2 e2 | d4 A4- | A2 B2 G4 | d8 | G8 |] %43
w: re, mi|dios, mi|dios cla- ro ve-|re, que|_ bien me|quie-|res.|

